X: 1794
T: Peggy O'Neill Jig
B: australian traditional tunes wiki
M:6/8
L:1/8
R: Jig
Q: 3/8=100
K:D
V:1 
ABd|"D"d2AA2F|A2d fed|"A7"c2GG2E|G3A2B|c2GG2E|G2B cBA|"D"B2FF2D|F2A ABc|
"D"d2AA2F|A2d fed|"A7"c2GG2E|G3c2e|"D"f2f fed|"A7"e2e edc|"D"d2A "A7"ABc|"D"d3d2B||
"G"GBdd2B|d3d2B|e2B dcB|"D7"A3A2F|D2FA2d|f2ff2e|d2c edc|"G"B3B2A|
"G"GBdd2B|d3d2B|e2B dcB|"D7"A3A2F|D2FA2d|f2ff2e|ded cBA|"G"G3G2||
% abcbook-tune_id 6342d53ac21dfc06d9706d23


% abcbook-boost 0
% abcbook-tablature 
% abcbook-transpose 
% abcbook-lastupdated 1665324384253
% abcbook-soundfonts 
% abcbook-repeats 1
% NFF Book 2016

